X:105
T:Happy Meeting. THO5.105
M:6/8
L:1/8
B:Thompson's Complete Collection of 200 Favourite Dances Vol.5
F:https://www.libraryofdance.org/manuals/1780c-Thompson-Compleat-5.pdf
Z:vmp. Peter Dunk 2024
Q:3/8=100
K:D
D2d AFD|B2B B3|Bcd AFD|E2E E3|
D2d AFD|B2B B2g|fed ABc|d2d d3:|
|:a2a afd|B2B B3|B2d AFD|E2E E3|
a2a afd|B2B B3|Bcd AFD|TE3 D3:|
W:
W:The 3 Ladies Promenade around the three Gents ./.
W:The 3 Gents around the Ladies ./:
W:Lead down the middle, up again and cast off :/.
W:Allemand with your Partner :/:

